packages/sources/icons/src/vitamix/whatsapp-line.svg

<svg width="16" height="16" viewBox="0 0 16 16" xmlns="http://www.w3.org/2000/svg"><path fill-rule="evenodd" clip-rule="evenodd" d="M1.33593 14.6667L2.23726 11.3547C1.64335 10.3366 1.33132 9.17867 1.33326 8.00001C1.33326 4.31801 4.31793 1.33334 7.99993 1.33334C11.6819 1.33334 14.6666 4.31801 14.6666 8.00001C14.6666 11.682 11.6819 14.6667 7.99993 14.6667C6.82178 14.6686 5.66437 14.3568 4.64659 13.7633L1.33593 14.6667ZM4.83527 12.3293L5.31793 12.6113C6.13189 13.0861 7.05766 13.3353 7.99993 13.3333C10.9455 13.3333 13.3333 10.9455 13.3333 8.00001C13.3333 5.05449 10.9455 2.66668 7.99993 2.66668C5.05441 2.66668 2.6666 5.05449 2.6666 8.00001C2.6666 8.95734 2.91793 9.87534 3.38927 10.6827L3.6706 11.1653L3.23527 12.766L4.83527 12.3293ZM5.86261 4.86934C5.77328 4.86534 5.68328 4.86534 5.59394 4.872C5.50785 4.87735 5.42306 4.89936 5.34594 4.938C5.28794 4.96734 5.23461 5.01 5.14994 5.09C5.0829 5.15367 5.03966 5.21019 4.9985 5.264C4.99095 5.27386 4.98348 5.28363 4.97594 5.29334C4.72951 5.61445 4.5972 6.00857 4.59994 6.41334C4.60619 6.73961 4.68139 7.06086 4.82061 7.356C5.09261 7.95734 5.54061 8.594 6.13394 9.184C6.15647 9.20642 6.17891 9.22886 6.20133 9.25127C6.32089 9.3708 6.43973 9.48962 6.56661 9.60134C7.3022 10.249 8.17878 10.716 9.12661 10.9653C9.12661 10.9653 9.49994 11.0233 9.50528 11.0233C9.6116 11.0291 9.71744 11.023 9.8232 11.017C9.84078 11.016 9.85836 11.015 9.87594 11.014C10.0701 11.0042 10.2596 10.9518 10.4313 10.8607C10.5185 10.8155 10.6037 10.7666 10.6866 10.714C10.7148 10.6946 10.7426 10.6746 10.7699 10.654C10.849 10.5969 10.9227 10.5326 10.9899 10.462C11.0471 10.4028 11.0943 10.3348 11.1299 10.2607C11.1819 10.152 11.2339 9.94467 11.2553 9.772C11.2706 9.64 11.2666 9.568 11.2639 9.52334C11.2619 9.452 11.2026 9.378 11.1373 9.34667L10.7493 9.17267C10.7493 9.17267 10.1699 8.92 9.81594 8.758C9.77861 8.74134 9.73794 8.734 9.69794 8.73134C9.60566 8.72186 9.51378 8.75273 9.44594 8.816V8.81467C9.44194 8.81467 9.39794 8.85267 8.91528 9.43734C8.8588 9.51311 8.76219 9.54733 8.67061 9.524C8.62728 9.51267 8.58461 9.49734 8.54328 9.48C8.49023 9.45733 8.45942 9.44371 8.42917 9.43035C8.41229 9.42289 8.39558 9.41551 8.37528 9.40667L8.37194 9.40534C7.99061 9.23867 7.63728 9.014 7.32528 8.73867C7.2632 8.68398 7.2044 8.62638 7.14565 8.56883C7.1249 8.5485 7.10416 8.52818 7.08328 8.508C6.80328 8.236 6.57394 7.94734 6.40328 7.66267L6.36394 7.59934C6.33594 7.554 6.30528 7.5 6.29594 7.46267C6.27061 7.36467 6.33661 7.286 6.33661 7.286C6.33661 7.286 6.49861 7.10867 6.57394 7.012C6.63665 6.93243 6.69517 6.84966 6.74928 6.764C6.82794 6.63734 6.85261 6.50734 6.81128 6.406C6.62461 5.95067 6.43128 5.49667 6.23261 5.046C6.19328 4.95667 6.07661 4.892 5.97061 4.88C5.93461 4.876 5.89861 4.872 5.86261 4.86934Z"/></svg>

<svg width="16" height="16" xmlns="http://www.w3.org/2000/svg"><path fill-rule="evenodd" clip-rule="evenodd" d="m1.336 14.667.901-3.312a6.667 6.667 0 1 1 2.41 2.409l-3.311.903Zm3.5-2.338.482.282a5.333 5.333 0 1 0-1.929-1.929l.282.483-.436 1.601 1.6-.437Zm1.027-7.46a2.26 2.26 0 0 0-.27.003.643.643 0 0 0-.247.066.849.849 0 0 0-.196.152c-.067.064-.11.12-.152.174l-.022.03a1.82 1.82 0 0 0-.376 1.12c.006.326.081.647.22.942.273.601.72 1.238 1.314 1.828l.067.067a6.298 6.298 0 0 0 2.925 1.714l.38.058c.106.006.211 0 .317-.006l.053-.003c.194-.01.384-.062.555-.153.088-.046.173-.094.256-.147l.083-.06c.079-.057.153-.121.22-.192a.769.769 0 0 0 .14-.201 1.86 1.86 0 0 0 .125-.489c.016-.132.012-.204.009-.249-.002-.071-.061-.145-.127-.176l-.388-.174s-.58-.253-.933-.415a.345.345 0 0 0-.118-.027.321.321 0 0 0-.252.085v-.001c-.004 0-.048.038-.53.622a.233.233 0 0 1-.245.087.956.956 0 0 1-.128-.044l-.114-.05a10.251 10.251 0 0 0-.054-.023l-.003-.002a4.007 4.007 0 0 1-1.047-.666c-.062-.055-.12-.113-.18-.17l-.062-.061c-.28-.272-.51-.56-.68-.845l-.04-.064a.59.59 0 0 1-.067-.136c-.025-.098.04-.177.04-.177s.163-.177.238-.274a2.92 2.92 0 0 0 .175-.248c.079-.127.104-.257.062-.358-.186-.455-.38-.91-.578-1.36-.04-.09-.156-.154-.262-.166-.036-.004-.072-.008-.108-.01Z"/></svg>
